MB/img/icon/step_4.svg

<svg width="35" height="21" viewBox="0 0 35 21" fill="none" xmlns="http://www.w3.org/2000/svg">
<path fill-rule="evenodd" clip-rule="evenodd" d="M24.9512 0.315521C27.9857 1.01968 29.1465 2.79408 30.6018 5.23633H24.9512V0.315521ZM7.21725 5.44141C7.81139 5.44141 8.24265 5.7282 8.24265 6.39844C8.24265 6.96374 7.78522 7.42223 7.22019 7.42383H1.02539C0.459023 7.42383 0 7.88312 0 8.44922C0 9.01559 0.459023 9.47461 1.02539 9.47461H10.2539C10.8256 9.47461 11.2833 9.93337 11.2833 10.5C11.2833 11.0664 10.8243 11.5254 10.2579 11.5254H1.02539C0.459023 11.5254 0 11.9844 0 12.5508C0 13.1172 0.459023 13.5762 1.02539 13.5762H3.28125V16.6523C3.28125 17.2187 3.74027 17.6777 4.30664 17.6777H6.36784C6.73527 19.4877 8.3345 20.8223 10.2197 20.8223C12.1049 20.8223 13.7042 19.4877 14.0716 17.6777H24.4831C24.8505 19.4877 26.4497 20.8223 28.335 20.8223C30.2202 20.8223 31.8194 19.4877 32.1869 17.6777H33.9746C34.541 17.6777 35 17.2187 35 16.6523V10.5C35 7.49139 31.8266 7.29165 31.8237 7.28711H23.9258C23.3594 7.28711 22.9004 6.82809 22.9004 6.26172V0.109375H4.30664C3.74027 0.109375 3.28125 0.568398 3.28125 1.13477V3.39063H2.05078C1.48441 3.39063 1.02539 3.84965 1.02539 4.41602C1.02539 4.98239 1.48441 5.44141 2.05078 5.44141H7.21725ZM29.6642 15.5623C30.3983 16.2964 30.3983 17.4871 29.6642 18.2211C28.4834 19.4019 26.4551 18.5619 26.4551 16.8916C26.4551 15.2216 28.4834 14.3815 29.6642 15.5623ZM11.549 15.5623C12.2831 16.2964 12.2831 17.4871 11.549 18.2211C10.3682 19.4019 8.33984 18.5619 8.33984 16.8916C8.33984 15.2216 10.3682 14.3815 11.549 15.5623Z" fill="#F62A3C"/>
</svg>

<svg width="35" height="21" fill="none" xmlns="http://www.w3.org/2000/svg"><path fill-rule="evenodd" clip-rule="evenodd" d="M24.951.316c3.035.704 4.195 2.478 5.65 4.92h-5.65V.316zM7.217 5.44c.594 0 1.026.287 1.026.957 0 .566-.458 1.024-1.023 1.026H1.025a1.025 1.025 0 000 2.05h9.229a1.025 1.025 0 11.004 2.051H1.025a1.025 1.025 0 100 2.051h2.256v3.076c0 .567.46 1.026 1.026 1.026h2.06a3.932 3.932 0 007.705 0h10.411a3.932 3.932 0 007.704 0h1.788c.566 0 1.025-.46 1.025-1.026V10.5c0-3.009-3.173-3.208-3.176-3.213h-7.898A1.025 1.025 0 0122.9 6.262V.109H4.307A1.028 1.028 0 003.28 1.135V3.39H2.05a1.025 1.025 0 100 2.05h5.166zm22.447 10.121a1.88 1.88 0 010 2.66c-1.18 1.18-3.209.34-3.209-1.33 0-1.67 2.028-2.51 3.21-1.33zm-18.115 0a1.88 1.88 0 010 2.66c-1.18 1.18-3.21.34-3.21-1.33 0-1.67 2.03-2.51 3.21-1.33z" fill="#F62A3C"/></svg>
